!!!OTL: Nesselkranz
!!!ARE: Europa, Mitteleuropa, Deutschland
!!!SCT: A0222
!!!YEM: Copyright 1995, estate of Helmut Schaffrath.
**kern
*ICvox
*Ivox
*M3/2
*k[f#]
*G:
{2g
=1
2b
2b
2cc
=2
1dd
2dd
=3
1dd
2dd
=4
1cc}
{2ffn
=5
2ee
2ee
2dd
=6
1cc}
{2a
=7
1b
2cc
=8
1dd
2dd
=9
1dd
2dd
=10
1a}
{2cc
=11
2b
1a
=12
1g}
==
!!!AGN: Romanze, Ballade, Lied
!! Joh. Ott III 1544 No. 24.
!!!ONB: ESAC (Essen Associative Code) Database: ALTDEU
!!!AMT: simple triple
!!!AIN: vox
!!!EED: Helmut Schaffrath
!!!EEV: 1.0
*-
